release/img/icons/Whatsapp.svg

<svg width="24" height="25" viewBox="0 0 24 25" fill="none" xmlns="http://www.w3.org/2000/svg">
<path d="M19.724 4.33266C17.5535 2.17018 14.6673 0.978614 11.5923 0.977295C5.25573 0.977295 0.09905 6.10964 0.0965132 12.418C0.0957748 14.4345 0.624988 16.4029 1.63088 18.138L0 24.0667L6.09404 22.4758C7.77306 23.3875 9.66353 23.8679 11.5873 23.8686H11.5922H11.5923C17.9278 23.8686 23.0853 18.7354 23.0879 12.4273C23.089 9.36996 21.8943 6.4953 19.724 4.33266ZM11.5923 21.9363H11.5885C9.87376 21.9353 8.19218 21.477 6.72544 20.6105L6.37638 20.4045L2.76005 21.3485L3.72556 17.8394L3.49814 17.4796C2.54162 15.9654 2.03666 14.2155 2.03738 12.4188C2.03948 7.17544 6.32551 2.90975 11.5959 2.90975C14.1481 2.91081 16.5469 3.90125 18.3509 5.69864C20.1549 7.49601 21.1477 9.88537 21.1469 12.4265C21.1447 17.67 16.8585 21.9363 11.5923 21.9363Z" fill="#E0E0E0"/>
<path d="M0.52771 23.4089L2.08409 17.7511C1.1239 16.0952 0.61896 14.2166 0.619566 12.2926C0.622084 6.27246 5.54325 1.37469 11.5898 1.37469C14.5245 1.37601 17.2789 2.51309 19.3498 4.57685C21.4212 6.64058 22.5613 9.38374 22.5601 12.3011C22.5575 18.3213 17.6361 23.2195 11.5903 23.2195C11.5898 23.2195 11.5906 23.2195 11.5903 23.2195H11.5854C9.74945 23.219 7.94548 22.7601 6.34326 21.8907L0.52771 23.4089Z" fill="url(#paint0_linear)"/>
<path fill-rule="evenodd" clip-rule="evenodd" d="M8.75147 7.56099C8.5388 7.09022 8.31487 7.08079 8.11253 7.07256C7.94703 7.06549 7.75757 7.06592 7.5684 7.06592C7.37909 7.06592 7.07145 7.13675 6.81129 7.41963C6.55098 7.7025 5.81738 8.38634 5.81738 9.77713C5.81738 11.1681 6.83495 12.512 6.97679 12.7008C7.11878 12.8893 8.94109 15.8346 11.8271 16.9677C14.2256 17.9094 14.7137 17.7221 15.2344 17.675C15.755 17.6279 16.9142 16.9913 17.1509 16.3312C17.3875 15.6712 17.3875 15.1054 17.3165 14.9872C17.2455 14.8694 17.0562 14.7987 16.7722 14.6573C16.4883 14.516 15.0924 13.832 14.8321 13.7378C14.5718 13.6435 14.3824 13.5964 14.1931 13.8794C14.0038 14.1621 13.46 14.7987 13.2943 14.9872C13.1287 15.1761 12.963 15.1997 12.679 15.0583C12.3951 14.9165 11.4806 14.6183 10.3957 13.6553C9.55163 12.9061 8.98176 11.9807 8.81611 11.6977C8.65045 11.415 8.79835 11.2618 8.94079 11.1209C9.06827 10.9943 9.22476 10.7909 9.36675 10.6258C9.50843 10.4608 9.55576 10.343 9.65042 10.1545C9.74508 9.96571 9.69775 9.80065 9.62675 9.65929C9.55576 9.51793 9.00394 8.11995 8.75147 7.56099Z" fill="white"/>
<path d="M19.63 4.29632C17.4844 2.15867 14.6314 0.9808 11.5917 0.979462C5.32784 0.979462 0.23036 6.05289 0.227842 12.2889C0.227104 14.2822 0.75024 16.228 1.74458 17.9432L0.132446 23.8038L6.15653 22.2312C7.8163 23.1323 9.68505 23.6072 11.5868 23.608H11.5916H11.5917C17.8545 23.608 22.9527 18.5337 22.9553 12.298C22.9564 9.27579 21.7754 6.43413 19.63 4.29632ZM11.5917 21.6978H11.588C9.89286 21.697 8.23057 21.2439 6.78068 20.3873L6.43562 20.1836L2.86081 21.1168L3.81522 17.648L3.59041 17.2924C2.64487 15.7955 2.1457 14.0658 2.14644 12.2896C2.14851 7.10649 6.38533 2.88977 11.5952 2.88977C14.1182 2.89081 16.4893 3.86988 18.2727 5.64663C20.056 7.42338 21.0373 9.7853 21.0366 12.2973C21.0344 17.4805 16.7974 21.6978 11.5917 21.6978Z" fill="white"/>
<defs>
<linearGradient id="paint0_linear" x1="11.5439" y1="23.4089" x2="11.5439" y2="1.37473" gradientUnits="userSpaceOnUse">
<stop stop-color="#20B038"/>
<stop offset="1" stop-color="#60D66A"/>
</linearGradient>
</defs>
</svg>

<svg width="24" height="25" fill="none" xmlns="http://www.w3.org/2000/svg"><path d="M19.724 4.333A11.45 11.45 0 0011.592.977C5.256.977.1 6.11.097 12.418a11.376 11.376 0 001.534 5.72L0 24.067l6.094-1.591a11.527 11.527 0 005.493 1.393h.005c6.336 0 11.493-5.134 11.496-11.442a11.346 11.346 0 00-3.364-8.094zm-8.132 17.603h-.004a9.576 9.576 0 01-4.863-1.326l-.349-.206-3.616.945.966-3.51-.228-.36a9.454 9.454 0 01-1.46-5.06c.001-5.244 4.288-9.51 9.558-9.51A9.514 9.514 0 0118.35 5.7a9.43 9.43 0 012.796 6.728c-.002 5.243-4.288 9.51-9.555 9.51z" fill="#E0E0E0"/><path d="M.528 23.409l1.556-5.658A10.86 10.86 0 01.62 12.293C.622 6.273 5.543 1.375 11.59 1.375a10.925 10.925 0 017.76 3.202 10.826 10.826 0 013.21 7.724c-.002 6.02-4.924 10.918-10.97 10.918h-.005a11 11 0 01-5.242-1.328L.528 23.409z" fill="url(#paint0_linear)"/><path fill-rule="evenodd" clip-rule="evenodd" d="M8.751 7.561c-.212-.47-.436-.48-.638-.488-.166-.008-.355-.007-.545-.007-.189 0-.497.07-.757.354-.26.282-.994.966-.994 2.357 0 1.391 1.018 2.735 1.16 2.924.142.188 1.964 3.134 4.85 4.267 2.399.941 2.887.754 3.407.707.521-.047 1.68-.684 1.917-1.344.236-.66.236-1.226.166-1.344-.072-.118-.26-.188-.545-.33-.284-.141-1.68-.825-1.94-.92-.26-.094-.45-.14-.639.142-.19.283-.733.92-.899 1.108-.165.19-.331.213-.615.071-.284-.142-1.198-.44-2.283-1.403-.844-.749-1.414-1.674-1.58-1.957-.166-.283-.018-.436.125-.577.127-.127.284-.33.426-.495.141-.165.189-.283.283-.471.095-.19.048-.354-.023-.496-.071-.141-.623-1.54-.876-2.098z" fill="#fff"/><path d="M19.63 4.296A11.318 11.318 0 0011.592.98C5.328.98.23 6.053.228 12.29c0 1.993.522 3.939 1.517 5.654l-1.613 5.86 6.025-1.572a11.397 11.397 0 005.43 1.377h.005c6.263 0 11.36-5.074 11.363-11.31a11.216 11.216 0 00-3.325-8.002zm-8.038 17.402h-.004a9.464 9.464 0 01-4.807-1.31l-.345-.204-3.575.933.954-3.469-.225-.356a9.345 9.345 0 01-1.444-5.002c.003-5.184 4.24-9.4 9.45-9.4a9.404 9.404 0 016.677 2.757 9.322 9.322 0 012.764 6.65c-.003 5.183-4.24 9.4-9.445 9.4z" fill="#fff"/><defs><linearGradient id="paint0_linear" x1="11.544" y1="23.409" x2="11.544" y2="1.375" gradientUnits="userSpaceOnUse"><stop stop-color="#20B038"/><stop offset="1" stop-color="#60D66A"/></linearGradient></defs></svg>
